X: 1
T: Paddy Killoran's jig
R: jig
D: From recording by J-P Loyer, Ojnab
Z: Translated to abc by Debby Knight
M: 6/8
L: 1/8
K: G
z |\
"G"G,3 DB,D | GFG Bdg | "C"edc "Am"BcA | "D"BGE DB,A, |\
"G"G,3 DB,D | GFG Bdg | "C"edc BcA | "D"BGF "G"G2 :|
|: D |\
"G"GBd g3 | "C"ece "G"d2B | "C"cBc "G"dBG | "Am7"AGA "D"BGE |\
"G"GBd g3 | "C"ece "G"d2B | "C"cBc "G"dBG |"D"AGF "G"G2 :|


